X: 214
T: the Black Lettered List
B: O'Neill's 214
N: "Animated"
N: "Collected by J.O'Neill"
Z: 1997 by John Chambers <jc@trillian.mit.edu>
M: 6/8
L: 1/8
K:G
D/D/ \
| GDB B>AG | ADc c>BA | d>BG G>AB | (A>GF/E/) D2D/D/ |
| GDB B>AG | (A<D)c c>BA | dBG DEF | GDB G2 ||
|| B \
| BFd d>cB | ABc cBA | G>AB BAG | (A>GF/E/) D2D |
| GDB BAG | c>de e>dc | B>dG GAF | GDB G2 ||


